svg/SJJB-OpenStreetMapIcons/education/school_primary.svg

<?xml version="1.0" encoding="UTF-8" standalone="no"?>
<!-- Created with Inkscape (http://www.inkscape.org/) -->

<svg
   xmlns:dc="http://purl.org/dc/elements/1.1/"
   xmlns:cc="http://creativecommons.org/ns#"
   xmlns:rdf="http://www.w3.org/1999/02/22-rdf-syntax-ns#"
   xmlns:svg="http://www.w3.org/2000/svg"
   xmlns="http://www.w3.org/2000/svg"
   xmlns:sodipodi="http://sodipodi.sourceforge.net/DTD/sodipodi-0.dtd"
   xmlns:inkscape="http://www.inkscape.org/namespaces/inkscape"
   version="1.0"
   width="580"
   height="580"
   id="svg2"
   sodipodi:version="0.32"
   inkscape:version="0.47 r22583"
   sodipodi:docname="education_school.svg"
   inkscape:output_extension="org.inkscape.output.svg.inkscape">
  <metadata
     id="metadata2975">
    <rdf:RDF>
      <cc:Work
         rdf:about="">
        <dc:format>image/svg+xml</dc:format>
        <dc:type
           rdf:resource="http://purl.org/dc/dcmitype/StillImage" />
        <cc:license
           rdf:resource="http://web.resource.org/cc/PublicDomain" />
        <dc:language>en</dc:language>
        <dc:title></dc:title>
      </cc:Work>
    </rdf:RDF>
  </metadata>
  <sodipodi:namedview
     inkscape:window-height="947"
     inkscape:window-width="1048"
     inkscape:pageshadow="2"
     inkscape:pageopacity="0.0"
     guidetolerance="10.0"
     gridtolerance="10.0"
     objecttolerance="10.0"
     borderopacity="1.0"
     bordercolor="#666666"
     pagecolor="#ffffff"
     id="base"
     inkscape:zoom="0.32586207"
     inkscape:cx="129.47352"
     inkscape:cy="-145.60251"
     inkscape:window-x="106"
     inkscape:window-y="56"
     inkscape:current-layer="svg2"
     showgrid="false"
     inkscape:window-maximized="0" />
  <defs
     id="defs4">
    <inkscape:perspective
       sodipodi:type="inkscape:persp3d"
       inkscape:vp_x="0 : 290 : 1"
       inkscape:vp_y="0 : 1000 : 0"
       inkscape:vp_z="580 : 290 : 1"
       inkscape:persp3d-origin="290 : 193.33333 : 1"
       id="perspective2441" />
    <inkscape:perspective
       id="perspective3452"
       inkscape:persp3d-origin="30 : 20 : 1"
       inkscape:vp_z="60 : 30 : 1"
       inkscape:vp_y="0 : 1000 : 0"
       inkscape:vp_x="0 : 30 : 1"
       sodipodi:type="inkscape:persp3d" />
    <symbol
       viewBox="244.5 110 489 219.9"
       id="symbol-university">
      <path
         id="path4460"
         d="M79,43l57,119c0,0,21-96,104-96s124,106,124,106l43-133l82-17L0,17L79,43z" />
      <path
         id="path4462"
         d="M94,176l-21,39"
         stroke-width="20"
         stroke="#000000"
         fill="none" />
      <path
         id="path4464"
         d="M300,19c0,10.5-22.6,19-50.5,19S199,29.5,199,19s22.6-19,50.5-19S300,8.5,300,19z" />
      <path
         id="path4466"
         d="M112,216l-16-38L64,88c0,0-9-8-4-35s16-24,16-24"
         stroke-width="20"
         stroke="#000000"
         ill="none" />
    </symbol>
    <inkscape:perspective
       id="perspective4471"
       inkscape:persp3d-origin="372.04724 : 350.78739 : 1"
       inkscape:vp_z="744.09448 : 526.18109 : 1"
       inkscape:vp_y="0 : 1000 : 0"
       inkscape:vp_x="0 : 526.18109 : 1"
       sodipodi:type="inkscape:persp3d" />
    <inkscape:perspective
       id="perspective4668"
       inkscape:persp3d-origin="6 : 4 : 1"
       inkscape:vp_z="12 : 6 : 1"
       inkscape:vp_y="0 : 1000 : 0"
       inkscape:vp_x="0 : 6 : 1"
       sodipodi:type="inkscape:persp3d" />
    <marker
       viewBox="0 0 10 10"
       refY="5"
       refX="10"
       orient="auto"
       markerWidth="4"
       markerUnits="strokeWidth"
       markerHeight="3"
       id="ArrowStart">
      <path
         id="path3634"
         d="M 10 0 L 0 5 L 10 10 z" />
    </marker>
    <marker
       viewBox="0 0 10 10"
       refY="5"
       refX="0"
       orient="auto"
       markerWidth="4"
       markerUnits="strokeWidth"
       markerHeight="3"
       id="ArrowEnd">
      <path
         id="path3631"
         d="M 0 0 L 10 5 L 0 10 z" />
    </marker>
    <inkscape:perspective
       id="perspective2510"
       inkscape:persp3d-origin="306.082 : 204.39034 : 1"
       inkscape:vp_z="612.164 : 306.58551 : 1"
       inkscape:vp_y="0 : 1000 : 0"
       inkscape:vp_x="0 : 306.58551 : 1"
       sodipodi:type="inkscape:persp3d" />
    <marker
       viewBox="0 0 10 10"
       refY="5"
       refX="10"
       orient="auto"
       markerWidth="4"
       markerUnits="strokeWidth"
       markerHeight="3"
       id="marker2611">
      <path
         id="path1325"
         d="M 10 0 L 0 5 L 10 10 z" />
    </marker>
    <marker
       viewBox="0 0 10 10"
       refY="5"
       refX="0"
       orient="auto"
       markerWidth="4"
       markerUnits="strokeWidth"
       markerHeight="3"
       id="marker2608">
      <path
         id="path1322"
         d="M 0 0 L 10 5 L 0 10 z" />
    </marker>
    <inkscape:perspective
       id="perspective2605"
       inkscape:persp3d-origin="306.082 : 204.39034 : 1"
       inkscape:vp_z="612.164 : 306.58551 : 1"
       inkscape:vp_y="0 : 1000 : 0"
       inkscape:vp_x="0 : 306.58551 : 1"
       sodipodi:type="inkscape:persp3d" />
    <inkscape:perspective
       id="perspective2656"
       inkscape:persp3d-origin="372.04724 : 350.78739 : 1"
       inkscape:vp_z="744.09448 : 526.18109 : 1"
       inkscape:vp_y="0 : 1000 : 0"
       inkscape:vp_x="0 : 526.18109 : 1"
       sodipodi:type="inkscape:persp3d" />
  </defs>
  <g
     id="layer3"
     inkscape:label="Layout"
     style="display:none;stroke:#757575;stroke-opacity:1"
     transform="matrix(48.14969,0,0,48.14969,-536.27327,-33.306752)">
    <rect
       style="fill:none;stroke:#757575;stroke-width:0.10000000000000001;stroke-miterlimit:4;stroke-dasharray:none;stroke-opacity:1;display:inline"
       id="rect4134"
       width="10"
       height="10"
       x="1"
       y="1" />
    <rect
       style="fill:none;stroke:#757575;stroke-width:0.10000000000000001;stroke-miterlimit:4;stroke-dasharray:none;stroke-opacity:1;display:inline"
       id="rect4136"
       width="8"
       height="8"
       x="2"
       y="2" />
  </g>
  <g
     id="g1327">
    <path
       d="M 66.275,1.768 C 24.94,1.768 1.704,23.139 1.704,66.804 L 1.704,516.927 C 1.704,557.771 22.599,579.156 63.896,579.156 L 515.92,579.156 C 557.227,579.156 578.149,558.841 578.149,516.927 L 578.149,66.804 C 578.149,24.203 557.227,1.768 514.628,1.768 C 514.624,1.768 66.133,1.625 66.275,1.768 z"
       style="fill:#111111;stroke:#eeeeee;stroke-width:3.40799999"
       id="path1329" />
  </g>
  <path
     id="path3526"
     style="opacity:0.75;fill:none;fill-rule:evenodd;stroke:#ffffff;stroke-width:30.78683472;stroke-linecap:round;stroke-linejoin:miter;stroke-miterlimit:4;stroke-dasharray:none;stroke-opacity:1"
     d="M 109.53419,508.69651 L 154.37168,400.14257 L 221.63981,361.34754 L 223.27508,214.21996 L 241.78563,173.98248 L 289.0426,62.097177 M 471.71115,508.69651 L 437.81131,426.6232 L 329.70819,251.33902 L 333.85002,160.40114 L 292.20274,62.097177"
     sodipodi:nodetypes="ccccccccccc" />
  <path
     style="fill:#ffffff;fill-opacity:1;stroke:none;stroke-width:20;stroke-linecap:round;stroke-linejoin:round;stroke-miterlimit:4;stroke-dasharray:none;stroke-dashoffset:0;stroke-opacity:1"
     d="M 73.249534,149.81914 L 73.249534,423.82196 L 510.99983,423.82196 L 510.99983,149.81914 L 73.249534,149.81914 z M 143.22544,175.69932 C 155.48659,175.69942 165.32433,176.41043 172.76156,177.78385 C 180.19859,179.15747 186.40374,182.02353 191.36194,186.37851 C 194.84589,189.39366 197.59367,193.64677 199.60383,199.17429 C 201.61375,204.70197 202.61825,209.99166 202.61838,215.01668 L 202.61838,262.12694 C 202.61825,267.15205 202.94382,271.11311 203.58046,273.96064 C 204.21686,276.80821 205.60535,280.44218 207.74951,284.86431 L 169.36218,284.86431 C 167.82105,282.11721 166.81655,280.01918 166.34763,278.57867 C 165.87853,277.13804 165.4055,274.86202 164.93658,271.7799 C 159.57642,276.93901 154.22685,280.63292 148.93383,282.84392 C 141.69764,285.79195 133.30825,287.26953 123.72712,287.26953 C 110.99685,287.26953 101.33578,284.3144 94.736179,278.41832 C 88.136549,272.52217 84.826659,265.25415 84.826667,256.61097 C 84.826657,248.50385 87.221095,241.82567 91.978192,236.59953 C 96.735261,231.37349 105.51008,227.50436 118.30735,224.95826 C 133.65058,221.87626 143.57595,219.71979 148.13209,218.4802 C 152.6881,217.24074 157.53539,215.61572 162.62756,213.60561 C 162.62748,208.58061 161.59376,205.06483 159.51681,203.05471 C 157.43967,201.04476 153.77502,200.04025 148.549,200.04016 C 141.84883,200.04024 136.82629,201.10317 133.47627,203.24713 C 130.86318,204.92224 128.73448,208.08465 127.12649,212.70767 L 88.033629,208.57068 C 89.507642,201.73664 91.634918,196.35934 94.415483,192.43967 C 97.196016,188.5202 101.21547,185.12267 106.44159,182.24153 C 110.19362,180.1646 115.33299,178.5702 121.89915,177.43109 C 128.46522,176.29217 135.58725,175.69943 143.22544,175.69932 z M 424.18737,175.69932 C 441.6076,175.69943 454.87206,178.83264 464.01784,185.06365 C 473.16339,191.29486 479.60649,200.39383 483.29168,212.38697 L 444.77607,217.51811 C 443.56996,212.96209 441.38426,209.53538 438.2018,207.22376 C 435.01915,204.91231 430.73397,203.76033 425.37395,203.76024 C 418.60677,203.76032 413.14181,206.18253 408.9543,211.04004 C 404.76667,215.8977 402.66861,223.25482 402.66866,233.10394 C 402.6686,241.88114 404.73603,248.52728 408.89017,253.08331 C 413.04419,257.63943 418.36451,259.94624 424.7967,259.94621 C 430.1567,259.94624 434.64636,258.55631 438.298,255.80923 C 441.94948,253.0622 444.69871,248.83688 446.50782,243.14174 L 485.37621,247.56734 C 483.23204,255.67452 479.71627,262.70749 474.8253,268.63708 C 469.9341,274.56667 463.70117,279.17598 456.09664,282.45909 C 448.49191,285.74209 438.83084,287.36574 427.10571,287.36574 C 415.78245,287.36574 406.35789,286.30139 398.8203,284.19084 C 391.28263,282.08031 384.78112,278.68426 379.35405,273.96064 C 373.92691,269.23708 369.67237,263.68164 366.59033,257.31651 C 363.50826,250.95142 361.9723,242.50074 361.97232,231.9815 C 361.97232,220.99336 363.83241,211.86519 367.58449,204.56198 C 370.33151,199.20198 374.08382,194.38532 378.84093,190.13066 C 383.598,185.87615 388.50369,182.71519 393.52881,180.63805 C 401.50191,177.35509 411.72509,175.69943 424.18737,175.69932 z M 162.62756,234.19431 C 156.99938,236.20439 151.11837,237.97688 145.02134,239.51786 C 136.71313,241.72896 131.45408,243.91607 129.24309,246.06007 C 126.96498,248.27115 125.84366,250.78241 125.84371,253.59643 C 125.84367,256.81252 126.96642,259.44205 129.21102,261.48555 C 131.4555,263.52911 134.73332,264.56426 139.08846,264.56424 C 143.64448,264.56426 147.90045,263.44006 151.8201,261.229 C 155.73958,259.01799 158.51659,256.33004 160.1582,253.14746 C 161.79965,249.96493 162.62748,245.82865 162.62756,240.73651 L 162.62756,234.19431 z M 240.42845,255.13577 L 281.73413,255.13577 L 281.73413,306.1906 C 285.82115,301.90263 290.45969,298.68179 295.65234,296.53765 C 300.84488,294.3937 306.57553,293.3308 312.87373,293.33068 C 325.87187,293.3308 336.62649,297.99854 345.13576,307.34511 C 353.64479,316.69185 357.89934,330.10523 357.89947,347.59248 C 357.89934,359.25073 355.94874,369.53376 352.0628,378.41138 C 348.1766,387.28906 342.79929,393.90588 335.93178,398.29455 C 329.06404,402.68312 321.4412,404.90089 313.06614,404.90089 C 305.89693,404.90089 299.33843,403.33287 293.3754,400.2508 C 288.88626,397.83885 284.01261,393.31853 278.71958,386.68535 L 278.71958,402.4636 L 240.42845,402.4636 L 240.42845,255.13577 z M 300.30244,323.89303 C 294.74129,323.8931 290.22243,325.92991 286.70491,330.0504 C 283.18732,334.17104 281.41338,340.43603 281.41343,348.81113 C 281.41338,357.99034 283.15809,364.6379 286.60871,368.75843 C 290.05922,372.87903 294.39995,374.9479 299.69311,374.94787 C 304.58412,374.9479 308.6912,372.90824 312.00784,368.85464 C 315.32432,364.8011 317.01062,357.97544 317.01071,348.39422 C 317.01063,339.95211 315.38559,333.77905 312.13612,329.82592 C 308.88648,325.87292 304.92545,323.89311 300.30244,323.89303 z"
     id="rect3530" />
  <rect
     y="149.82085"
     x="73.263275"
     height="273.98654"
     width="437.7486"
     id="rect3544"
     style="fill:none;fill-opacity:1;stroke:#ffffff;stroke-width:20.52455711;stroke-linecap:round;stroke-linejoin:round;stroke-miterlimit:4;stroke-dasharray:none;stroke-dashoffset:0;stroke-opacity:1" />
</svg>

<svg xmlns="http://www.w3.org/2000/svg" viewBox="0 0 580 580"><path d="m66.28 1.768c-41.34 0-64.57 21.371-64.57 65.04v450.12c0 40.844 20.895 62.23 62.19 62.23h452.02c41.31 0 62.23-20.315 62.23-62.23v-450.12c0-42.601-20.922-65.04-63.52-65.04-.004 0-448.5-.143-448.35 0z" fill="#111" stroke="#eee" stroke-width="3.408"/><path d="m109.53 508.7l44.837-108.55 67.27-38.795 1.635-147.13 18.511-40.24 47.26-111.89m182.67 446.6l-33.9-82.07-108.1-175.28 4.142-90.94-41.647-98.3" opacity=".75" fill="none" fill-rule="evenodd" stroke="#fff" stroke-linecap="round" stroke-width="30.787"/><path d="m73.25 149.82v274h437.75v-274h-437.75m69.976 25.88c12.261 0 22.1.711 29.536 2.085 7.437 1.374 13.642 4.24 18.6 8.595 3.484 3.02 6.232 7.268 8.242 12.796 2.01 5.528 3.01 10.817 3.01 15.842v47.11c0 5.03.325 8.986.962 11.834.636 2.848 2.025 6.482 4.169 10.904h-38.39c-1.541-2.747-2.546-4.845-3.01-6.286-.469-1.441-.942-3.717-1.411-6.799-5.36 5.159-10.71 8.853-16 11.06-7.236 2.948-15.626 4.426-25.21 4.426-12.73 0-22.391-2.955-28.991-8.851-6.6-5.896-9.91-13.164-9.91-21.807 0-8.107 2.394-14.785 7.152-20.01 4.757-5.226 13.532-9.1 26.329-11.641 15.343-3.082 25.27-5.238 29.825-6.478 4.556-1.239 9.403-2.864 14.495-4.875 0-5.03-1.034-8.541-3.111-10.551-2.077-2.01-5.742-3.01-10.968-3.01-6.7 0-11.723 1.063-15.07 3.207-2.613 1.675-4.742 4.838-6.35 9.461l-39.09-4.137c1.474-6.834 3.601-12.211 6.382-16.13 2.781-3.919 6.8-7.317 12.03-10.198 3.752-2.077 8.891-3.671 15.458-4.81 6.566-1.139 13.688-1.732 21.326-1.732m280.96 0c17.42 0 30.685 3.133 39.83 9.364 9.146 6.231 15.589 15.33 19.274 27.323l-38.516 5.131c-1.206-4.556-3.392-7.983-6.574-10.294-3.183-2.311-7.468-3.463-12.828-3.464-6.767 0-12.232 2.422-16.42 7.28-4.188 4.858-6.286 12.215-6.286 22.06 0 8.777 2.067 15.423 6.222 19.979 4.154 4.556 9.474 6.863 15.907 6.863 5.36 0 9.85-1.39 13.501-4.137 3.651-2.747 6.401-6.972 8.21-12.667l38.868 4.426c-2.144 8.107-5.66 15.14-10.551 21.07-4.891 5.93-11.124 10.539-18.729 13.822-7.605 3.283-17.266 4.907-28.991 4.907-11.323 0-20.748-1.064-28.29-3.175-7.538-2.111-14.04-5.507-19.466-10.23-5.427-4.724-9.682-10.279-12.764-16.644-3.082-6.365-4.618-14.816-4.618-25.335 0-10.988 1.86-20.12 5.612-27.42 2.747-5.36 6.499-10.177 11.256-14.431 4.757-4.255 9.663-7.415 14.688-9.493 7.973-3.283 18.2-4.939 30.659-4.939m-261.56 58.49c-5.628 2.01-11.509 3.783-17.606 5.324-8.308 2.211-13.567 4.398-15.778 6.542-2.278 2.211-3.399 4.722-3.399 7.536 0 3.216 1.123 5.846 3.367 7.889 2.244 2.044 5.522 3.079 9.877 3.079 4.556 0 8.812-1.124 12.732-3.335 3.919-2.211 6.696-4.899 8.338-8.08 1.641-3.183 2.469-7.319 2.469-12.411v-6.542m77.8 20.941h41.31v51.05c4.087-4.288 8.726-7.509 13.918-9.653 5.193-2.144 10.923-3.207 17.221-3.207 12.998 0 23.753 4.668 32.26 14.01 8.509 9.347 12.764 22.76 12.764 40.25 0 11.658-1.951 21.941-5.837 30.819-3.886 8.878-9.264 15.495-16.13 19.883-6.868 4.389-14.491 6.606-22.866 6.606-7.169 0-13.728-1.568-19.691-4.65-4.489-2.412-9.363-6.932-14.656-13.565v15.778h-38.29v-147.33m59.874 68.757c-5.561 0-10.08 2.037-13.598 6.157-3.518 4.121-5.292 10.386-5.291 18.761 0 9.179 1.745 15.827 5.195 19.947 3.451 4.121 7.791 6.189 13.08 6.189 4.891 0 8.998-2.04 12.315-6.093 3.316-4.054 5-10.879 5-20.46 0-8.442-1.625-14.615-4.875-18.568-3.25-3.953-7.211-5.933-11.834-5.933" fill="#fff"/><path fill="none" stroke="#fff" stroke-linejoin="round" stroke-linecap="round" stroke-width="20.525" d="m73.26 149.82h437.75v273.99h-437.75z"/></svg>
